svg/previous.svg

<svg xmlns="http://www.w3.org/2000/svg" viewBox="0 0 40 52" enable-background="new 0 0 40 52"><style type="text/css">.st0{fill:#343434;}</style><title>previous</title><desc>Created with Sketch.</desc><path class="st0" d="M37.1.7l-31.1 20.5v-10.2c0-1.7-1.3-3-3-3s-3 1.3-3 3v30c0 1.7 1.3 3 3 3s3-1.3 3-3v-10.6l31.1 20.6c1.4.9 2.5.3 2.5-1.3v-47.7c0-1.7-1.2-2.3-2.5-1.3zm-3.5 40.8l-23.7-15.7 23.7-15.7v31.4z"/></svg>

<?xml version="1.0" encoding="utf-8"?>
<!-- Generator: Adobe Illustrator 21.0.0, SVG Export Plug-In . SVG Version: 6.00 Build 0)  -->
<svg version="1.1" id="Layer_1" xmlns="http://www.w3.org/2000/svg" xmlns:xlink="http://www.w3.org/1999/xlink" x="0px" y="0px"
	 viewBox="0 0 40 52" style="enable-background:new 0 0 40 52;" xml:space="preserve">
<style type="text/css">
	.st0{fill:#343434;}
</style>
<title>previous</title>
<desc>Created with Sketch.</desc>
<path class="st0" d="M37.1,0.7L6,21.2V11c0-1.7-1.3-3-3-3s-3,1.3-3,3v30c0,1.7,1.3,3,3,3s3-1.3,3-3V30.4L37.1,51
	c1.4,0.9,2.5,0.3,2.5-1.3V2C39.6,0.3,38.4-0.3,37.1,0.7z M33.6,41.5L9.9,25.8l23.7-15.7V41.5z"/>
</svg>
